;FLAVOR:UltiGCode
;TIME:883
;MATERIAL:1884
;MATERIAL2:0
;NOZZLE_DIAMETER:0.400000
;NOZZLE_DIAMETER2:0.400000

;Layer count: 60
;LAYER:0
M107
G0 F9000 X104.623 Y92.296 Z0.300
;TYPE:SKIRT
G1 F1200 X125.523 Y92.296 E2.50800
G1 X125.523 Y95.641 E2.90940
G1 X125.922 Y95.741 E2.95876
G1 X125.922 Y96.104 E3.00232
G1 X126.137 Y96.202 E3.03067
G1 X126.751 Y96.601 E3.11855
G1 X127.572 Y96.602 E3.21707
G1 X127.572 Y97.409 E3.31391
G1 X127.636 Y97.474 E3.32485
G1 X128.205 Y98.512 E3.46690
G1 X128.410 Y99.215 E3.55477
G1 X128.507 Y99.763 E3.62155
G1 X128.522 Y100.869 E3.75429
G1 X128.522 Y124.883 E6.63597
G1 X128.488 Y125.331 E6.68988
G1 X128.421 Y125.718 E6.73701
G1 X128.338 Y126.036 E6.77645
G1 X128.235 Y126.355 E6.81668
G1 X128.097 Y126.681 E6.85916
G1 X127.897 Y127.075 E6.91218
G1 X127.572 Y127.542 E6.98045
G1 X127.572 Y128.395 E7.08281
G1 X126.735 Y128.395 E7.18325
G1 X126.407 Y128.617 E7.23078
G1 X126.142 Y128.777 E7.26793
G1 X125.826 Y128.936 E7.31038
G1 X125.530 Y129.056 E7.34871
G1 X125.212 Y129.164 E7.38901
G1 X124.831 Y129.258 E7.43610
G1 X124.266 Y129.342 E7.50464
G1 X123.454 Y129.345 E7.60208
G1 X123.123 Y129.345 E7.64180
G1 X123.123 Y132.896 E8.06792
G1 X104.423 Y132.896 E10.31192
G1 X104.423 Y129.321 E10.74092
G1 X104.223 Y129.281 E10.76540
G1 X104.223 Y128.796 E10.82360
G1 X104.155 Y128.765 E10.83257
G1 X103.616 Y128.389 E10.91143
G1 X102.773 Y128.388 E11.01259
G1 X102.773 Y127.544 E11.11387
G1 X102.329 Y126.903 E11.20744
G1 X101.941 Y125.861 E11.34087
G1 X101.825 Y125.087 E11.43479
G1 X101.823 Y123.722 E11.59859
G1 X101.823 Y100.119 E14.43095
G1 X101.865 Y99.526 E14.50228
G1 X102.094 Y98.631 E14.61314
G1 X102.564 Y97.691 E14.73926
G1 X102.774 Y97.448 E14.77780
G1 X102.774 Y96.599 E14.87968
G1 X103.623 Y96.599 E14.98156
G1 X103.983 Y96.330 E15.03549
G1 X104.473 Y96.084 E15.10128
G1 X104.473 Y95.501 E15.17124
G1 X104.623 Y95.471 E15.18960
G1 X104.623 Y92.296 E15.57060
G0 F9000 X105.023 Y92.696
G1 F1200 X125.123 Y92.696 E17.98260
G1 X125.123 Y95.953 E18.37344
G1 X125.522 Y96.053 E18.42280
G1 X125.522 Y96.362 E18.45988
G1 X125.944 Y96.554 E18.51551
G1 X126.554 Y96.950 E18.60278
G1 X126.605 Y97.001 E18.61144
G1 X127.172 Y97.002 E18.67948
G1 X127.172 Y97.575 E18.74824
G1 X127.312 Y97.716 E18.77208
G1 X127.833 Y98.666 E18.90210
G1 X128.020 Y99.306 E18.98211
G1 X128.107 Y99.801 E19.04242
G1 X128.122 Y100.872 E19.17096
G1 X128.122 Y124.868 E22.05048
G1 X128.090 Y125.282 E22.10030
G1 X128.030 Y125.633 E22.14304
G1 X127.954 Y125.924 E22.17913
G1 X127.860 Y126.215 E22.21582
G1 X127.734 Y126.512 E22.25454
G1 X127.552 Y126.869 E22.30262
G1 X127.172 Y127.417 E22.38265
G1 X127.172 Y127.995 E22.45201
G1 X126.587 Y127.995 E22.52221
G1 X126.524 Y128.054 E22.53256
G1 X126.191 Y128.280 E22.58086
G1 X125.949 Y128.427 E22.61484
G1 X125.660 Y128.571 E22.65358
G1 X125.391 Y128.681 E22.68846
G1 X125.100 Y128.780 E22.72534
G1 X124.754 Y128.865 E22.76810
G1 X124.236 Y128.942 E22.83094
G1 X123.453 Y128.945 E22.92490
G1 X122.958 Y128.945 E22.98430
G1 X122.723 Y128.992 E23.01306
G1 X122.723 Y132.496 E23.43354
G1 X104.823 Y132.496 E25.58154
G1 X104.823 Y128.993 E26.00190
G1 X104.623 Y128.953 E26.02638
G1 X104.623 Y128.538 E26.07618
G1 X104.354 Y128.416 E26.11162
G1 X103.743 Y127.990 E26.20100
G1 X103.173 Y127.989 E26.26940
G1 X103.173 Y127.419 E26.33780
G1 X102.686 Y126.717 E26.44033
G1 X102.330 Y125.760 E26.56286
G1 X102.225 Y125.057 E26.64815
G1 X102.223 Y123.722 E26.80835
G1 X102.223 Y100.133 E29.63903
G1 X102.261 Y99.591 E29.70423
G1 X102.471 Y98.772 E29.80569
G1 X102.899 Y97.915 E29.92064
G1 X103.174 Y97.597 E29.97109
G1 X103.174 Y96.999 E30.04285
G1 X103.756 Y96.999 E30.11269
G1 X104.194 Y96.672 E30.17829
G1 X104.873 Y96.331 E30.26946
G1 X104.873 Y95.829 E30.32970
G1 X105.023 Y95.799 E30.34806
G1 X105.023 Y92.696 E30.72042
G10
G0 F9000 X106.252 Y99.465
;TYPE:WALL-OUTER
G11
G1 F1200 X106.365 Y99.449 E30.73411
G1 X107.873 Y99.446 E30.91508
G1 X107.873 Y99.996 E30.98108
G1 X106.357 Y99.998 E31.16300
G1 X106.242 Y100.063 E31.17885
G1 X106.174 Y100.178 E31.19488
G1 X106.173 Y124.753 E34.14388
G1 X106.178 Y124.818 E34.15170
G1 X106.242 Y124.931 E34.16729
G1 X106.361 Y124.993 E34.18339
G1 X107.623 Y124.995 E34.33483
G1 X107.623 Y125.545 E34.40083
G1 X106.605 Y125.545 E34.52299
G1 X106.309 Y125.536 E34.55852
G1 X106.138 Y125.492 E34.57971
G1 X106.041 Y125.448 E34.59249
G1 X105.895 Y125.346 E34.61387
G1 X105.822 Y125.273 E34.62626
G1 X105.723 Y125.131 E34.64703
G1 X105.641 Y124.910 E34.67531
G1 X105.625 Y124.801 E34.68853
G1 X105.623 Y100.260 E37.63345
G1 X105.632 Y100.135 E37.64849
G1 X105.675 Y99.965 E37.66954
G1 X105.750 Y99.817 E37.68945
G1 X105.905 Y99.638 E37.71786
G1 X105.986 Y99.577 E37.73003
G1 X106.148 Y99.495 E37.75182
G1 X106.252 Y99.465 E37.76481
G0 F9000 X106.153 Y99.648
;TYPE:SKIN
G1 F1200 X106.510 Y99.722 E37.80013
G1 X107.075 Y99.721 E37.84556
G1 X107.492 Y99.856 E37.89816
G0 F9000 X106.051 Y100.111
G1 F1200 X105.808 Y100.151 E37.93140
G1 X105.897 Y100.806 E37.97741
G1 X105.897 Y101.372 E38.02343
G1 X105.897 Y101.937 E38.06936
G1 X105.897 Y102.503 E38.11521
G1 X105.897 Y103.069 E38.16122
G1 X105.897 Y103.634 E38.20716
G1 X105.897 Y104.200 E38.25300
G1 X105.897 Y104.766 E38.29902
G1 X105.897 Y105.331 E38.34495
G1 X105.897 Y105.897 E38.39080
G1 X105.897 Y106.463 E38.43682
G1 X105.897 Y107.029 E38.48266
G1 X105.897 Y107.594 E38.52860
G1 X105.897 Y108.160 E38.57444
G1 X105.897 Y108.726 E38.62029
G1 X105.897 Y109.291 E38.66622
G1 X105.897 Y109.857 E38.71207
G1 X105.897 Y110.423 E38.75791
G1 X105.897 Y110.988 E38.80385
G1 X105.897 Y111.554 E38.84969
G1 X105.897 Y112.120 E38.89554
G1 X105.898 Y112.686 E38.94122
G1 X105.898 Y113.252 E38.98689
G1 X105.898 Y113.817 E39.03249
G1 X105.898 Y114.383 E39.07816
G1 X105.898 Y114.949 E39.12384
G1 X105.898 Y115.514 E39.16944
G1 X105.898 Y116.080 E39.21511
G1 X105.898 Y116.646 E39.26079
G1 X105.898 Y117.211 E39.30638
G1 X105.898 Y117.777 E39.35206
G1 X105.898 Y118.343 E39.39774
G1 X105.898 Y118.909 E39.44341
G1 X105.898 Y119.475 E39.48909
G1 X105.898 Y120.040 E39.53468
G1 X105.898 Y120.606 E39.58019
G1 X105.898 Y121.172 E39.62587
G1 X105.898 Y121.737 E39.67146
G1 X105.898 Y122.303 E39.71697
G1 X105.898 Y122.869 E39.76265
G1 X105.898 Y123.434 E39.80824
G1 X105.898 Y124.000 E39.85375
G1 X106.033 Y124.418 E39.90646
G0 F9000 X105.764 Y124.714
G1 F1200 X106.449 Y125.399 E40.02271
G0 F9000 X106.748 Y125.133
G1 F1200 X107.166 Y125.268 E40.06857
G1 X107.483 Y125.302 E40.10682
G10
G0 F9000 X120.322 Y125.545
;TYPE:WALL-OUTER
G11
G1 F1200 X120.322 Y124.995 E40.17282
G1 X123.986 Y124.993 E40.61250
G1 X124.115 Y124.923 E40.63012
G1 X124.172 Y124.785 E40.64803
G1 X124.172 Y100.231 E43.59451
G1 X124.162 Y100.164 E43.60264
G1 X124.103 Y100.065 E43.61647
G1 X123.990 Y99.998 E43.63224
G1 X122.522 Y99.996 E43.80840
G1 X122.522 Y99.446 E43.87440
G1 X123.715 Y99.446 E44.01756
G1 X124.036 Y99.455 E44.05609
G1 X124.206 Y99.499 E44.07716
G1 X124.304 Y99.543 E44.09005
G1 X124.395 Y99.603 E44.10313
G1 X124.561 Y99.770 E44.13139
G1 X124.673 Y99.973 E44.15921
G1 X124.711 Y100.122 E44.17766
G1 X124.722 Y100.894 E44.27031
G1 X124.722 Y124.745 E47.13243
G1 X124.705 Y124.908 E47.15210
G1 X124.653 Y125.070 E47.17252
G1 X124.525 Y125.268 E47.20081
G1 X124.396 Y125.389 E47.22203
G1 X124.151 Y125.512 E47.25493
G1 X123.977 Y125.543 E47.27614
G1 X120.322 Y125.545 E47.71474
G0 F9000 X120.595 Y125.403
;TYPE:SKIN
G1 F1200 X120.676 Y125.202 E47.73736
G1 X121.309 Y125.268 E47.78300
G1 X121.874 Y125.268 E47.82859
G1 X122.439 Y125.268 E47.87419
G1 X123.004 Y125.267 E47.91961
G1 X123.570 Y125.267 E47.96512
G1 X124.087 Y125.218 E48.01014
G1 X124.470 Y125.036 E48.04042
G1 X124.446 Y124.446 E48.08435
G1 X124.446 Y123.880 E48.13020
G1 X124.446 Y123.314 E48.17605
G1 X124.446 Y122.749 E48.22164
G1 X124.446 Y122.183 E48.26732
G1 X124.445 Y121.617 E48.31299
G1 X124.445 Y121.051 E48.35850
G1 X124.445 Y120.485 E48.40401
G1 X124.445 Y119.919 E48.44951
G1 X124.445 Y119.354 E48.49494
G1 X124.445 Y118.788 E48.54044
G1 X124.445 Y118.222 E48.58578
G1 X124.445 Y117.657 E48.63121
G1 X124.444 Y117.091 E48.67654
G1 X124.444 Y116.525 E48.72188
G1 X124.444 Y115.959 E48.76705
G1 X124.444 Y115.393 E48.81204
G1 X124.444 Y114.827 E48.85721
G1 X124.444 Y114.261 E48.90238
G1 X124.444 Y113.696 E48.94747
G1 X124.443 Y113.130 E48.99246
G1 X124.443 Y112.564 E49.03746
G1 X124.443 Y111.998 E49.08229
G1 X124.443 Y111.432 E49.12711
G1 X124.443 Y110.866 E49.17194
G1 X124.443 Y110.301 E49.21669
G1 X124.443 Y109.735 E49.26135
G1 X124.443 Y109.169 E49.30600
G1 X124.442 Y108.603 E49.35049
G1 X124.442 Y108.037 E49.39498
G1 X124.442 Y107.471 E49.43947
G1 X124.442 Y106.906 E49.48371
G1 X124.442 Y106.340 E49.52802
G1 X124.442 Y105.774 E49.57251
G1 X124.442 Y105.208 E49.61666
G1 X124.442 Y104.643 E49.66090
G1 X124.441 Y104.076 E49.70529
G1 X124.441 Y103.511 E49.74953
G1 X124.441 Y102.945 E49.79368
G1 X124.441 Y102.379 E49.83766
G1 X124.441 Y101.813 E49.88181
G1 X124.441 Y101.248 E49.92571
G1 X124.441 Y100.682 E49.96969
G1 X124.104 Y100.062 E50.01372
G1 X123.479 Y99.721 E50.05943
G1 X122.913 Y99.720 E50.10511
G1 X122.661 Y99.750 E50.13556
G0 F9000 X122.281 Y99.975
;TYPE:SUPPORT
G1 F1200 X108.112 Y99.975 E51.83584
G0 F9000 X107.973 Y99.207
G1 F1200 X107.973 Y95.236 E52.31236
G0 F9000 X107.562 Y97.309
G1 F1200 X122.582 Y97.309 E54.11476
G0 F9000 X121.303 Y95.236
G1 F1200 X121.303 Y124.755 E57.65704
G0 F9000 X120.182 Y126.635
G1 F1200 X107.362 Y126.635 E59.19544
G0 F9000 X107.362 Y129.301
G1 F1200 X120.182 Y129.301 E60.73384
G10
G0 F9000 X123.931 Y123.969
G11
G1 F1200 X106.413 Y123.969 E62.83600
G0 F9000 X106.413 Y121.303
G1 F1200 X123.931 Y121.303 E64.93816
G0 F9000 X123.931 Y118.637
G1 F1200 X106.413 Y118.637 E67.04032
G0 F9000 X106.413 Y115.971
G1 F1200 X123.931 Y115.971 E69.14248
G0 F9000 X123.931 Y113.305
G1 F1200 X106.413 Y113.305 E71.24464
G0 F9000 X106.413 Y110.639
G1 F1200 X123.931 Y110.639 E73.34680
G0 F9000 X123.931 Y107.973
G1 F1200 X106.413 Y107.973 E75.44896
G0 F9000 X106.413 Y105.307
G1 F1200 X123.931 Y105.307 E77.55112
G0 F9000 X123.931 Y102.641
G1 F1200 X106.413 Y102.641 E79.65328
G0 F9000 X107.973 Y100.236
G1 F1200 X107.973 Y129.956 E83.21968
G0 F9000 X110.639 Y129.956
G1 F1200 X110.639 Y95.236 E87.38608
G0 F9000 X113.305 Y95.236
G1 F1200 X113.305 Y129.956 E91.55248
G0 F9000 X115.971 Y129.956
G1 F1200 X115.971 Y95.236 E95.71888
G0 F9000 X118.637 Y95.236
G1 F1200 X118.637 Y129.956 E99.88528
;LAYER:1
M106 S127
G10
G0 F9000 X107.623 Y125.545 Z0.450
;TYPE:WALL-OUTER
G11
G1 F1620 X106.720 Y125.545 E99.93946
G1 X106.315 Y125.536 E99.96377
G1 X106.032 Y125.442 E99.98166
G1 X105.899 Y125.349 E99.99140
G1 X105.754 Y125.186 E100.00448
G1 X105.675 Y125.026 E100.01519
G1 X105.633 Y124.861 E100.02541
G1 X105.623 Y123.035 E100.13497
G1 X105.623 Y100.260 E101.50147
G1 X105.631 Y100.142 E101.50856
G1 X105.726 Y99.856 E101.52665
G1 X105.819 Y99.722 E101.53643
G1 X105.942 Y99.608 E101.54650
G1 X106.095 Y99.517 E101.55718
G1 X106.302 Y99.456 E101.57012
G1 X107.873 Y99.447 E101.66439
G1 X107.873 Y99.996 E101.69733
G1 X106.357 Y99.998 E101.78829
G1 X106.242 Y100.063 E101.79621
G1 X106.174 Y100.178 E101.80423
G1 X106.173 Y124.753 E103.27873
G1 X106.178 Y124.818 E103.28264
G1 X106.242 Y124.931 E103.29043
G1 X106.361 Y124.993 E103.29848
G1 X107.623 Y124.995 E103.37420
G1 X107.623 Y125.545 E103.40720
G0 F9000 X107.483 Y125.296
;TYPE:SKIN
G1 F1620 X107.227 Y125.268 E103.41640
G1 X106.662 Y125.267 E103.43936
G1 X106.097 Y125.267 E103.45987
G1 X105.939 Y124.859 E103.47549
G1 X105.903 Y124.330 E103.49744
G1 X105.903 Y123.764 E103.51943
G1 X105.902 Y123.199 E103.54147
G1 X105.902 Y122.633 E103.56354
G1 X105.902 Y122.067 E103.58562
G1 X105.902 Y121.502 E103.60774
G1 X105.902 Y120.937 E103.62986
G1 X105.902 Y120.371 E103.65201
G1 X105.902 Y119.805 E103.67426
G1 X105.902 Y119.240 E103.69638
G1 X105.901 Y118.674 E103.71854
G1 X105.901 Y118.109 E103.74074
G1 X105.901 Y117.543 E103.76299
G1 X105.901 Y116.978 E103.78519
G1 X105.901 Y116.412 E103.80752
G1 X105.901 Y115.847 E103.82981
G1 X105.901 Y115.281 E103.85214
G1 X105.901 Y114.715 E103.87455
G1 X105.900 Y114.150 E103.89692
G1 X105.900 Y113.584 E103.91934
G1 X105.900 Y113.019 E103.94171
G1 X105.900 Y112.453 E103.96421
G1 X105.900 Y111.888 E103.98675
G1 X105.900 Y111.322 E104.00925
G1 X105.899 Y110.756 E104.03175
G1 X105.899 Y110.191 E104.05429
G1 X105.899 Y109.626 E104.07684
G1 X105.899 Y109.060 E104.09951
G1 X105.899 Y108.494 E104.12209
G1 X105.899 Y107.929 E104.14463
G1 X105.899 Y107.363 E104.16730
G1 X105.899 Y106.798 E104.19001
G1 X105.898 Y106.232 E104.21268
G1 X105.898 Y105.666 E104.23544
G1 X105.898 Y105.101 E104.25815
G1 X105.898 Y104.536 E104.28095
G1 X105.898 Y103.970 E104.30378
G1 X105.898 Y103.404 E104.32662
G1 X105.898 Y102.839 E104.34942
G1 X105.898 Y102.273 E104.37226
G1 X105.897 Y101.708 E104.39514
G1 X105.897 Y101.142 E104.41806
G1 X105.897 Y100.576 E104.44099
G1 X106.183 Y100.007 E104.46391
G1 X106.749 Y99.725 E104.48630
G1 X107.316 Y99.723 E104.50884
G1 X107.731 Y99.591 E104.53497
G10
G0 F9000 X122.522 Y99.446
;TYPE:WALL-OUTER
G11
G1 F1620 X123.584 Y99.446 E104.59869
G1 X124.036 Y99.455 E104.62581
G1 X124.203 Y99.498 E104.63616
G1 X124.351 Y99.573 E104.64611
G1 X124.523 Y99.723 E104.65981
G1 X124.650 Y99.921 E104.67392
G1 X124.711 Y100.122 E104.68652
G1 X124.722 Y101.326 E104.75877
G1 X124.722 Y124.745 E106.16391
G1 X124.691 Y124.961 E106.17700
G1 X124.593 Y125.177 E106.19123
G1 X124.437 Y125.355 E106.20543
G1 X124.351 Y125.419 E106.21186
G1 X124.249 Y125.475 E106.21885
G1 X124.098 Y125.525 E106.22839
G1 X123.977 Y125.543 E106.23573
G1 X120.322 Y125.545 E106.45503
G1 X120.322 Y124.995 E106.48803
G1 X123.937 Y124.995 E106.70493
G1 X124.000 Y124.985 E106.70876
G1 X124.115 Y124.923 E106.71660
G1 X124.172 Y124.785 E106.72555
G1 X124.172 Y100.231 E108.19879
G1 X124.162 Y100.164 E108.20286
G1 X124.103 Y100.065 E108.20977
G1 X123.990 Y99.998 E108.21766
G1 X122.522 Y99.996 E108.30574
G1 X122.522 Y99.446 E108.33874
G0 F9000 X122.741 Y99.856
;TYPE:SKIN
G1 F1620 X123.158 Y99.720 E108.36163
G1 X123.723 Y99.721 E108.38460
G1 X124.274 Y99.736 E108.40477
G1 X124.411 Y100.165 E108.42065
G1 X124.441 Y100.701 E108.44247
G1 X124.441 Y101.267 E108.46429
G1 X124.441 Y101.832 E108.48607
G1 X124.441 Y102.397 E108.50794
G1 X124.441 Y102.963 E108.52984
G1 X124.441 Y103.529 E108.55174
G1 X124.441 Y104.094 E108.57369
G1 X124.442 Y104.660 E108.59560
G1 X124.442 Y105.225 E108.61755
G1 X124.442 Y105.791 E108.63954
G1 X124.442 Y106.356 E108.66149
G1 X124.442 Y106.922 E108.68356
G1 X124.442 Y107.487 E108.70560
G1 X124.442 Y108.053 E108.72767
G1 X124.442 Y108.619 E108.74975
G1 X124.442 Y109.185 E108.77182
G1 X124.443 Y109.750 E108.79394
G1 X124.443 Y110.315 E108.81606
G1 X124.443 Y110.881 E108.83830
G1 X124.443 Y111.446 E108.86051
G1 X124.443 Y112.012 E108.88275
G1 X124.443 Y112.578 E108.90499
G1 X124.443 Y113.143 E108.92720
G1 X124.443 Y113.709 E108.94944
G1 X124.444 Y114.274 E108.97173
G1 X124.444 Y114.840 E108.99406
G1 X124.444 Y115.405 E109.01644
G1 X124.444 Y115.971 E109.03885
G1 X124.444 Y116.536 E109.06122
G1 X124.445 Y117.102 E109.08364
G1 X124.445 Y117.668 E109.10613
G1 X124.445 Y118.233 E109.12868
G1 X124.445 Y118.798 E109.15122
G1 X124.445 Y119.364 E109.17372
G1 X124.445 Y119.930 E109.19622
G1 X124.445 Y120.495 E109.21876
G1 X124.445 Y121.061 E109.24135
G1 X124.446 Y121.626 E109.26397
G1 X124.446 Y122.192 E109.28664
G1 X124.446 Y122.758 E109.30931
G1 X124.446 Y123.323 E109.33202
G1 X124.446 Y123.888 E109.35474
G1 X124.446 Y124.454 E109.37740
G1 X124.179 Y125.004 E109.40363
G1 X123.632 Y125.267 E109.42967
G1 X123.067 Y125.267 E109.45238
G1 X122.501 Y125.268 E109.47522
G1 X121.935 Y125.268 E109.49806
G1 X121.369 Y125.268 E109.52090
G1 X120.803 Y125.268 E109.54382
G1 X120.462 Y125.328 E109.56460
;LAYER:2
M106 S255
G10
G0 F9000 X107.623 Y125.545 Z0.600
;TYPE:WALL-OUTER
G11
G1 F2100 X106.835 Y125.545 E109.61188
G1 X106.315 Y125.536 E109.64308
G1 X106.086 Y125.470 E109.65738
G1 X105.998 Y125.422 E109.66339
G1 X105.816 Y125.265 E109.67782
G1 X105.724 Y125.132 E109.68752
G1 X105.656 Y124.971 E109.69801
G1 X105.625 Y124.795 E109.70873
