;FLAVOR:UltiGCode
;TIME:14377
;MATERIAL:43935
;MATERIAL2:0
;NOZZLE_DIAMETER:0.6
;Generated with Cura_SteamEngine 3.2.1
M82 ;absolute extrusion mode
;Zet temperatuur van nozzle op 230 graden en wacht op opwarming.
M104 S230.000000 T0
M109
;LAYER_COUNT:400
;LAYER:0
M107
G0 F6000 X86.987 Y59.029 Z0.3
;TYPE:SKIRT
G1 F1500 X88.911 Y56.333 E0.59618
G1 X89.136 Y56.051 E0.66112
G1 X90.686 Y54.316 E1.07989
G1 X90.85 Y54.145 E1.12254
G1 X91.763 Y53.26 E1.35142
G1 X91.923 Y53.115 E1.39029
G1 X93.554 Y51.729 E1.77555
G1 X93.73 Y51.59 E1.81592
G1 X94.772 Y50.82 E2.04913
G1 X94.953 Y50.695 E2.08873
G1 X96.802 Y49.511 E2.48394
G1 X97.061 Y49.361 E2.53781
G1 X99.251 Y48.224 E2.98197
G1 X99.52 Y48.1 E3.03529
G1 X101.502 Y47.287 E3.4209
G1 X101.712 Y47.209 E3.46122
G1 X102.953 Y46.796 E3.69664
G1 X103.233 Y46.716 E3.74906
G1 X106.432 Y45.957 E4.34087
G1 X106.802 Y45.891 E4.40852
G1 X109.273 Y45.595 E4.85648
G1 X109.568 Y45.573 E4.90972
G1 X111.742 Y45.509 E5.30121
G1 X112.031 Y45.514 E5.35324
G1 X114.335 Y45.648 E5.76866
G1 X114.637 Y45.679 E5.82331
G1 X117.022 Y46.04 E6.2575
G1 X117.308 Y46.097 E6.30999
G1 X119.408 Y46.608 E6.69902
G1 X119.617 Y46.666 E6.73806
G1 X120.747 Y47.021 E6.95126
G1 X120.953 Y47.093 E6.99054
G1 X123.033 Y47.901 E7.3922
G1 X123.245 Y47.992 E7.43373
G1 X124.437 Y48.554 E7.67094
G1 X124.632 Y48.654 E7.71039
G1 X126.491 Y49.686 E8.09311
G1 X126.683 Y49.801 E8.13339
G1 X127.832 Y50.545 E8.37979
G1 X128.017 Y50.674 E8.42038
G1 X129.728 Y51.956 E8.80522
G1 X129.902 Y52.096 E8.84542
G1 X130.9 Y52.955 E9.08244
G1 X131.067 Y53.11 E9.12345
G1 X132.682 Y54.707 E9.53228
G1 X132.925 Y54.974 E9.59726
G1 X135.023 Y57.56 E10.19667
G1 X135.2 Y57.8 E10.25034
G1 X135.924 Y58.879 E10.48423
G1 X136.04 Y59.065 E10.52369
G1 X137.105 Y60.905 E10.90637
G1 X137.242 Y61.168 E10.95975
G1 X138.297 Y63.439 E11.41048
G1 X138.41 Y63.713 E11.46383
G1 X139.132 Y65.722 E11.8481
G1 X139.201 Y65.938 E11.88891
G1 X139.566 Y67.226 E12.12988
G1 X139.635 Y67.519 E12.18407
G1 X140.257 Y70.843 E12.79277
G1 X140.303 Y71.196 E12.85685
G1 X140.468 Y73.331 E13.24229
G1 X140.478 Y73.585 E13.28805
G1 X140.49 Y174.191 E31.39713
G1 X140.45 Y174.702 E31.48939
G1 X140.331 Y175.202 E31.5819
G1 X140.136 Y175.677 E31.67433
G1 X139.87 Y176.116 E31.76672
G1 X139.539 Y176.508 E31.85907
G1 X139.151 Y176.845 E31.95158
G1 X138.716 Y177.117 E32.04392
G1 X138.244 Y177.318 E32.13627
G1 X137.746 Y177.444 E32.22873
G1 X137.19 Y177.491 E32.32917
G1 X85.809 Y177.491 E41.57775
G1 X85.297 Y177.451 E41.67019
G1 X84.798 Y177.332 E41.76253
G1 X84.323 Y177.137 E41.85495
G1 X83.884 Y176.871 E41.94735
G1 X83.491 Y176.54 E42.03983
G1 X83.155 Y176.152 E42.13222
G1 X82.883 Y175.717 E42.22457
G1 X82.682 Y175.244 E42.31708
G1 X82.556 Y174.747 E42.40937
G1 X82.509 Y174.19 E42.50998
G1 X82.548 Y73.022 E60.72023
G1 X82.559 Y72.754 E60.76851
G1 X82.66 Y71.519 E60.99155
G1 X82.686 Y71.298 E61.0316
G1 X83.016 Y69.101 E61.4315
G1 X83.057 Y68.878 E61.47231
G1 X83.334 Y67.626 E61.70312
G1 X83.388 Y67.415 E61.74233
G1 X83.988 Y65.357 E62.12819
G1 X84.057 Y65.146 E62.16815
G1 X84.502 Y63.931 E62.40105
G1 X84.584 Y63.728 E62.44046
G1 X85.451 Y61.773 E62.82541
G1 X85.585 Y61.506 E62.87919
G1 X86.79 Y59.341 E63.32518
G1 X86.987 Y59.029 E63.3916
G10
G0 F6000 X96.871 Y52.38
G0 X97.853 Y53.794
;TYPE:WALL-INNER
G11
G1 F1500 X98.788 Y53.206 E63.59042
G1 X99.766 Y52.652 E63.79274
G1 X100.729 Y52.161 E63.98731
G1 X101.746 Y51.698 E64.18845
G1 X102.796 Y51.278 E64.39201
G1 X103.837 Y50.914 E64.59051
G1 X104.898 Y50.595 E64.78994
G1 X105.978 Y50.324 E64.99036
G1 X107.098 Y50.094 E65.19617
G1 X108.163 Y49.924 E65.3903
G1 X109.269 Y49.8 E65.59062
G1 X110.379 Y49.726 E65.79087
G1 X111.5 Y49.7 E65.9927
G1 X112.621 Y49.726 E66.19453
G1 X113.731 Y49.8 E66.39478
G1 X114.837 Y49.924 E66.59511
G1 X115.902 Y50.094 E66.78923
G1 X117.022 Y50.324 E66.99504
G1 X118.102 Y50.595 E67.19547
G1 X119.163 Y50.914 E67.39489
G1 X120.204 Y51.278 E67.5934
G1 X121.254 Y51.698 E67.79696
G1 X122.271 Y52.161 E67.99809
G1 X123.234 Y52.652 E68.19266
G1 X124.212 Y53.206 E68.39499
G1 X125.147 Y53.794 E68.5938
G1 X126.084 Y54.443 E68.79897
G1 X126.962 Y55.111 E68.99755
G1 X127.817 Y55.825 E69.19805
G1 X128.659 Y56.594 E69.40331
G1 X129.406 Y57.341 E69.59347
G1 X130.175 Y58.183 E69.79872
G1 X130.889 Y59.038 E69.99923
G1 X131.562 Y59.923 E70.19936
G1 X132.206 Y60.853 E70.40297
G1 X132.79 Y61.781 E70.60034
G1 X133.351 Y62.771 E70.80516
G1 X133.833 Y63.716 E70.99611
G1 X134.301 Y64.744 E71.19942
G1 X134.719 Y65.785 E71.40134
G1 X135.086 Y66.837 E71.6019
G1 X135.406 Y67.902 E71.80206
G1 X135.678 Y68.981 E72.00236
G1 X135.901 Y70.072 E72.2028
G1 X136.076 Y71.171 E72.40311
G1 X136.199 Y72.263 E72.60091
G1 X136.275 Y73.388 E72.80388
G1 X136.3 Y74.5 E73.00409
G1 X136.3 Y173.3 E90.78809
G1 X86.7 Y173.3 E99.71609
G1 X86.7 Y74.527 E117.49523
G1 X86.725 Y73.388 E117.7003
G1 X86.8 Y72.275 E117.90109
G1 X86.92 Y71.198 E118.09615
G1 X87.099 Y70.072 E118.30137
G1 X87.316 Y69.007 E118.49701
G1 X87.594 Y67.902 E118.70211
G1 X87.914 Y66.837 E118.90228
G1 X88.281 Y65.785 E119.10283
G1 X88.695 Y64.752 E119.30315
G1 X89.167 Y63.716 E119.50807
G1 X89.649 Y62.771 E119.69902
G1 X90.21 Y61.781 E119.90384
G1 X90.794 Y60.852 E120.10136
G1 X91.422 Y59.945 E120.29993
G1 X92.111 Y59.038 E120.50495
G1 X92.825 Y58.183 E120.70546
G1 X93.594 Y57.341 E120.91072
G1 X94.341 Y56.594 E121.10087
G1 X95.183 Y55.825 E121.30613
G1 X96.038 Y55.111 E121.50664
G1 X96.916 Y54.443 E121.70522
G1 X97.853 Y53.794 E121.91038
G0 F6000 X97.519 Y53.295
;TYPE:WALL-OUTER
G1 F1500 X98.485 Y52.688 E122.11574
G1 X99.475 Y52.127 E122.32056
G1 X100.467 Y51.621 E122.52101
G1 X101.516 Y51.144 E122.72844
G1 X102.578 Y50.719 E122.93433
G1 X103.664 Y50.339 E123.14144
G1 X104.729 Y50.019 E123.3416
G1 X105.846 Y49.738 E123.54893
G1 X106.978 Y49.506 E123.75692
G1 X108.086 Y49.329 E123.95889
G1 X109.229 Y49.201 E124.16592
G1 X110.348 Y49.126 E124.36779
G1 X111.5 Y49.1 E124.5752
G1 X112.652 Y49.126 E124.78261
G1 X113.771 Y49.201 E124.98449
G1 X114.914 Y49.329 E125.19151
G1 X116.022 Y49.506 E125.39348
G1 X117.154 Y49.738 E125.60148
G1 X118.271 Y50.019 E125.8088
G1 X119.336 Y50.339 E126.00897
G1 X120.422 Y50.719 E126.21607
G1 X121.484 Y51.144 E126.42197
G1 X122.533 Y51.621 E126.62939
G1 X123.525 Y52.127 E126.82984
G1 X124.515 Y52.688 E127.03466
G1 X125.481 Y53.295 E127.24002
G1 X126.44 Y53.96 E127.45008
G1 X127.347 Y54.65 E127.65522
G1 X128.202 Y55.364 E127.85572
G1 X129.064 Y56.151 E128.06582
G1 X129.849 Y56.936 E128.26565
G1 X130.636 Y57.798 E128.47575
G1 X131.35 Y58.653 E128.67626
G1 X132.04 Y59.56 E128.88139
G1 X132.705 Y60.519 E129.09145
G1 X133.312 Y61.485 E129.29681
G1 X133.873 Y62.475 E129.50163
G1 X134.379 Y63.467 E129.70208
G1 X134.852 Y64.505 E129.9074
G1 X135.276 Y65.562 E130.1124
G1 X135.661 Y66.664 E130.32252
G1 X135.981 Y67.729 E130.52268
G1 X136.26 Y68.834 E130.72782
G1 X136.494 Y69.978 E130.93801
G1 X136.669 Y71.077 E131.13832
G1 X136.798 Y72.223 E131.3459
G1 X136.874 Y73.348 E131.54886
G1 X136.9 Y74.5 E131.75628
G1 X136.9 Y173.9 E149.64828
G1 X86.1 Y173.9 E158.79228
G1 X86.1 Y74.514 E176.68176
G1 X86.126 Y73.348 E176.89169
G1 X86.201 Y72.235 E177.09248
G1 X86.327 Y71.104 E177.29732
G1 X86.506 Y69.978 E177.50255
G1 X86.734 Y68.86 E177.70793
G1 X87.019 Y67.729 E177.91787
G1 X87.339 Y66.664 E178.11804
G1 X87.714 Y65.588 E178.32315
G1 X88.138 Y64.529 E178.52848
G1 X88.621 Y63.467 E178.73848
G1 X89.127 Y62.475 E178.93893
G1 X89.688 Y61.485 E179.14375
G1 X90.295 Y60.519 E179.34911
G1 X90.944 Y59.582 E179.55427
G1 X91.65 Y58.653 E179.7643
G1 X92.364 Y57.798 E179.96481
G1 X93.151 Y56.936 E180.17491
G1 X93.936 Y56.151 E180.37474
G1 X94.798 Y55.364 E180.58484
G1 X95.653 Y54.65 E180.78534
G1 X96.56 Y53.96 E180.99048
G1 X97.519 Y53.295 E181.20054
G0 F6000 X97.773 Y53.136
G0 X98.123 Y53.695
G0 X98.125 Y54.202
;TYPE:SKIN
G1 F1500 X99.049 Y53.621 E181.33151
G1 X100.008 Y53.078 E181.46376
G1 X100.932 Y52.607 E181.58822
G1 X101.936 Y52.15 E181.72059
G1 X102.974 Y51.735 E181.85474
G1 X103.991 Y51.379 E181.98404
G1 X105.026 Y51.068 E182.11372
G1 X106.082 Y50.803 E182.24437
G1 X107.188 Y50.576 E182.37986
G1 X108.231 Y50.409 E182.50661
G1 X109.312 Y50.288 E182.63714
G1 X110.399 Y50.216 E182.76787
G1 X111.5 Y50.19 E182.90003
G1 X112.601 Y50.216 E183.03218
G1 X113.688 Y50.288 E183.16291
G1 X114.769 Y50.409 E183.29344
G1 X115.812 Y50.576 E183.42019
G1 X116.918 Y50.803 E183.55568
G1 X117.974 Y51.068 E183.68633
G1 X119.009 Y51.379 E183.81601
G1 X120.026 Y51.735 E183.94532
G1 X121.064 Y52.15 E184.07946
G1 X122.068 Y52.607 E184.21184
G1 X122.992 Y53.078 E184.33629
G1 X123.951 Y53.621 E184.46854
G1 X124.875 Y54.202 E184.59951
G1 X125.798 Y54.841 E184.73423
G1 X126.658 Y55.496 E184.86395
G1 X127.493 Y56.193 E184.99447
G1 X128.329 Y56.956 E185.13029
G1 X129.044 Y57.671 E185.25163
G1 X129.807 Y58.507 E185.38745
G1 X130.504 Y59.342 E185.51797
G1 X131.159 Y60.202 E185.6477
G1 X131.798 Y61.125 E185.78241
G1 X132.371 Y62.035 E185.91146
G1 X132.925 Y63.013 E186.04634
G1 X133.387 Y63.919 E186.16838
G1 X133.85 Y64.935 E186.30236
G1 X134.257 Y65.947 E186.43325
G1 X134.621 Y66.991 E186.56593
G1 X134.933 Y68.03 E186.69611
G1 X135.198 Y69.079 E186.82594
G1 X135.419 Y70.162 E186.95858
G1 X135.589 Y71.226 E187.08788
G1 X135.711 Y72.31 E187.21878
G1 X135.785 Y73.408 E187.35084
G1 X135.81 Y74.5 E187.48192
G1 X135.81 Y172.81 E199.27912
G1 X87.19 Y172.81 E205.11352
G1 X87.19 Y74.538 E216.90616
G1 X87.215 Y73.408 E217.04179
G1 X87.287 Y72.329 E217.17156
G1 X87.404 Y71.275 E217.29881
G1 X87.581 Y70.162 E217.43405
G1 X87.791 Y69.126 E217.5609
G1 X88.067 Y68.03 E217.69653
G1 X88.379 Y66.991 E217.82671
G1 X88.735 Y65.968 E217.95669
G1 X89.141 Y64.955 E218.08765
G1 X89.613 Y63.919 E218.22426
G1 X90.075 Y63.013 E218.3463
G1 X90.625 Y62.042 E218.48022
G1 X91.202 Y61.124 E218.61033
G1 X91.82 Y60.231 E218.74065
G1 X92.496 Y59.341 E218.87476
G1 X93.193 Y58.507 E219.00519
G1 X93.956 Y57.671 E219.14101
G1 X94.671 Y56.956 E219.26235
G1 X95.507 Y56.193 E219.39817
G1 X96.342 Y55.496 E219.52869
G1 X97.195 Y54.846 E219.65738
G1 X98.125 Y54.202 E219.79313
G10
G0 F6000 X96.947 Y52.331
G0 X98.939 Y51.143
G0 X101.083 Y50.111
G0 X103.312 Y49.275
G0 X105.598 Y48.645
G0 X107.938 Y48.219
G0 X110.305 Y48.007
G0 X112.695 Y48.007
G0 X115.062 Y48.219
G0 X117.402 Y48.645
G0 X119.688 Y49.275
G0 X121.917 Y50.111
G0 X124.061 Y51.143
G0 X126.105 Y52.363
G0 X128.04 Y53.769
G0 X129.833 Y55.336
G0 X131.476 Y57.056
G0 X131.893 Y57.58
G0 X133.293 Y59.401
G0 X131.415 Y60.705
G11
G1 F1500 X125.295 Y54.584 E220.83181
G1 X125.189 Y54.478
G0 F6000 X123.726 Y53.581
G1 F1500 X132.418 Y62.273 E222.30689
G1 X132.524 Y62.379
G0 F6000 X133.098 Y63.518
G1 F1500 X122.481 Y52.902 E224.10857
G1 X122.375 Y52.796
G0 F6000 X121.398 Y52.385
G1 F1500 X133.614 Y64.6 E226.18161
G1 X133.72 Y64.706
G0 F6000 X134.026 Y65.578
G1 F1500 X120.423 Y51.975 E228.49012
G1 X120.317 Y51.869
G0 F6000 X119.52 Y51.637
G1 F1500 X134.363 Y66.48 E231.00906
G1 X134.469 Y66.586
G0 F6000 X134.642 Y67.325
G1 F1500 X118.674 Y51.357 E233.71892
G1 X118.568 Y51.251
G0 F6000 X117.871 Y51.12
G1 F1500 X134.879 Y68.129 E236.60536
G1 X134.985 Y68.235
G0 F6000 X135.071 Y68.886
G1 F1500 X117.115 Y50.93 E239.65259
G1 X117.009 Y50.824
G0 F6000 X116.391 Y50.771
G1 F1500 X135.229 Y69.609 E242.84951
G1 X135.335 Y69.715
G0 F6000 X135.366 Y70.312
G1 F1500 X115.685 Y50.631 E246.18948
G1 X115.579 Y50.525
G0 F6000 X115.012 Y50.524
G1 F1500 X135.473 Y70.985 E249.66183
G1 X135.579 Y71.091
G0 F6000 X135.558 Y71.636
G1 F1500 X114.361 Y50.439 E253.25908
G1 X114.255 Y50.333
G0 F6000 X113.724 Y50.367
G1 F1500 X135.63 Y72.274 E256.97674
G1 X135.736 Y72.38
G0 F6000 X135.673 Y72.882
G1 F1500 X113.117 Y50.326 E260.80462
G1 X113.011 Y50.22
G0 F6000 X112.515 Y50.29
G1 F1500 X135.711 Y73.486 E264.74111
G1 X135.817 Y73.592
G0 F6000 X135.724 Y74.064
G1 F1500 X111.935 Y50.275 E268.77823
G1 X111.829 Y50.169
G0 F6000 X111.362 Y50.268
G1 F1500 X135.734 Y74.64 E272.9143
G1 X135.84 Y74.746
G0 F6000 X135.734 Y75.206
G1 F1500 X110.809 Y50.281 E277.14421
G1 X110.703 Y50.175
G0 F6000 X110.263 Y50.3
G1 F1500 X135.734 Y75.772 E281.46687
G1 X135.84 Y75.878
G0 F6000 X135.734 Y76.337
G1 F1500 X109.732 Y50.335 E285.87956
G1 X109.626 Y50.229
G0 F6000 X109.206 Y50.374
G1 F1500 X135.734 Y76.903 E290.38159
G1 X135.84 Y77.009
G0 F6000 X135.734 Y77.469
G1 F1500 X108.697 Y50.432 E294.96992
G1 X108.591 Y50.326
G0 F6000 X108.19 Y50.49
G1 F1500 X135.734 Y78.034 E299.64429
G1 X135.84 Y78.14
G0 F6000 X135.734 Y78.6
G1 F1500 X107.703 Y50.569 E304.40131
G1 X107.597 Y50.463
G0 F6000 X107.216 Y50.647
G1 F1500 X135.734 Y79.166 E309.24106
G1 X135.84 Y79.272
G0 F6000 X135.734 Y79.731
G1 F1500 X106.746 Y50.743 E314.16049
G1 X106.64 Y50.637
G0 F6000 X106.276 Y50.839
G1 F1500 X135.734 Y80.297 E319.15968
G1 X135.84 Y80.403
G0 F6000 X135.734 Y80.863
G1 F1500 X105.818 Y50.947 E324.23659
G1 X105.712 Y50.841
G0 F6000 X105.365 Y51.06
G1 F1500 X135.734 Y81.429 E329.39038
G1 X135.84 Y81.535
G0 F6000 X135.734 Y81.994
G1 F1500 X104.919 Y51.178 E334.61995
G1 X104.813 Y51.072
G0 F6000 X104.484 Y51.309
G1 F1500 X135.734 Y82.56 E339.92333
G1 X135.84 Y82.666
G0 F6000 X135.734 Y83.126
G1 F1500 X104.049 Y51.44 E345.30054
G1 X103.943 Y51.334
G0 F6000 X103.628 Y51.585
G1 F1500 X135.734 Y83.691 E350.74911
G1 X135.84 Y83.797
G0 F6000 X135.734 Y84.257
G1 F1500 X103.21 Y51.732 E356.2687
G1 X103.104 Y51.626
G0 F6000 X102.798 Y51.886
G1 F1500 X135.734 Y84.823 E361.85821
G1 X135.84 Y84.929
G0 F6000 X135.734 Y85.388
G1 F1500 X102.394 Y52.048 E367.51619
G1 X102.288 Y51.942
G0 F6000 X101.99 Y52.209
G1 F1500 X135.734 Y85.954 E373.24282
G1 X135.84 Y86.06
G0 F6000 X135.734 Y86.52
G1 F1500 X101.599 Y52.385 E379.03573
G1 X101.493 Y52.279
G0 F6000 X101.211 Y52.562
G1 F1500 X135.734 Y87.085 E384.89447
G1 X135.84 Y87.191
G0 F6000 X135.734 Y87.651
G1 F1500 X100.827 Y52.743 E390.81847
G1 X100.721 Y52.637
G0 F6000 X100.453 Y52.935
G1 F1500 X135.734 Y88.217 E396.80594
G1 X135.84 Y88.323
G0 F6000 X135.734 Y88.782
G1 F1500 X100.078 Y53.126 E402.85697
G1 X99.972 Y53.02
G0 F6000 X99.716 Y53.329
G1 F1500 X135.734 Y89.348 E408.96951
G1 X135.84 Y89.454
G0 F6000 X135.734 Y89.914
G1 F1500 X99.355 Y53.535 E415.14323
G1 X99.249 Y53.429
G0 F6000 X98.997 Y53.742
G1 F1500 X135.734 Y90.479 E421.3777
G1 X135.84 Y90.585
G0 F6000 X135.734 Y91.045
G1 F1500 X98.649 Y53.96 E427.67124
G1 X98.543 Y53.854
G0 F6000 X98.302 Y54.179
G1 F1500 X135.734 Y91.611 E434.02366
G1 X135.84 Y91.717
G0 F6000 X135.734 Y92.177
G1 F1500 X97.963 Y54.405 E440.4337
G1 X97.857 Y54.299
G0 F6000 X97.628 Y54.636
G1 F1500 X135.734 Y92.742 E446.9005
G1 X135.84 Y92.848
G0 F6000 X135.734 Y93.308
G1 F1500 X97.294 Y54.867 E453.42407
G1 X97.188 Y54.761
G0 F6000 X96.971 Y55.11
G1 F1500 X135.734 Y93.874 E460.00245
G1 X135.84 Y93.98
G0 F6000 X135.734 Y94.439
G1 F1500 X96.65 Y55.355 E466.63523
G1 X96.544 Y55.249
G0 F6000 X96.331 Y55.602
G1 F1500 X135.734 Y95.005 E473.32214
G1 X135.84 Y95.111
G0 F6000 X135.734 Y95.571
G1 F1500 X96.023 Y55.86 E480.06132
G1 X95.917 Y55.754
G0 F6000 X95.715 Y56.117
G1 F1500 X135.734 Y96.136 E486.85277
G1 X135.84 Y96.242
G0 F6000 X135.734 Y96.702
G1 F1500 X95.413 Y56.381 E493.69547
G1 X95.307 Y56.275
G0 F6000 X95.117 Y56.65
G1 F1500 X135.734 Y97.268 E500.58849
G1 X135.84 Y97.374
G0 F6000 X135.734 Y97.833
G1 F1500 X94.821 Y56.92 E507.53165
G1 X94.715 Y56.814
G0 F6000 X94.533 Y57.198
G1 F1500 X135.734 Y98.399 E514.52369
G1 X135.84 Y98.505
G0 F6000 X135.734 Y98.965
G1 F1500 X94.25 Y57.481 E521.56376
G1 X94.144 Y57.375
G0 F6000 X93.968 Y57.764
G1 F1500 X135.734 Y99.53 E528.65169
G1 X135.84 Y99.636
G0 F6000 X135.734 Y100.096
G1 F1500 X93.7 Y58.061 E535.78518
G1 X93.594 Y57.955
G0 F6000 X93.43 Y58.357
G1 F1500 X135.734 Y100.662 E542.96449
G1 X135.84 Y100.768
G0 F6000 X135.734 Y101.227
G1 F1500 X93.164 Y58.657 E550.18886
G1 X93.058 Y58.551
G0 F6000 X92.906 Y58.964
G1 F1500 X135.734 Y101.793 E557.4571
G1 X135.84 Y101.899
G0 F6000 X135.734 Y102.359
G1 F1500 X92.648 Y59.273 E564.76903
G1 X92.542 Y59.167
G0 F6000 X92.399 Y59.59
G1 F1500 X135.734 Y102.925 E572.12323
G1 X135.84 Y103.031
G0 F6000 X135.734 Y103.49
G1 F1500 X92.155 Y59.911 E579.51883
